public/assets/logingraphicsWAVES.svg

<svg width="1440" height="417" fill="none" xmlns="http://www.w3.org/2000/svg"><path d="M174.5 373C42.217 315.556-15.667 245.833-27 219v391.5H85.5c446 2.667 1338.4 6.4 1340 0 2-8-11.5-106.5-25.5-136.5-21.35-45.742-67.86-102.411-104.5-138-35-34-117.5-83-228-92.5-74.251-6.384-199.5 42.346-215 49.5-104 48-131 71.5-183.5 105-85.986 54.867-230 34-236.5 34s-94.5 12-258-59z" fill="#0A316C" stroke="#0A316C"/><path d="M21.235 166C-32.862 108.35-60.142 61.384-103.247 0l-8.747 82.538c-1.264 11.933 3.658 46.142 32.915 87.958C-49.823 212.312 20.78 282.345 82.234 314.5c56 29.302 124.102 52.337 203 58 104.5 7.5 205.5-7.5 227.5-15-7.423-1.122-51.235 3-159.735-9-32.184-3.56-120.727-23.5-180.765-60.5-45.881-28.275-82.5-49-151-122z" fill="#fff"/><path d="M663.512 330.626C467.347 424.669 272.726 412.85 161 371.738c5.492 4.454 100.193 42.448 152.916 62.181 65.903 24.667 130.777 23.126 166.303 27.237 35.525 4.111 154.975-7.195 193.59-25.181 40.409-18.822 112.756-62.181 194.621-119.738 81.864-57.556 167.33-62.181 225-59.611 77.77 3.465 144.16 36.143 172.99 56.528 4.64 4.625-18.69-23.109-67.96-46.251-17.51-8.221-87.53-48.82-196.16-45.736-113.839 3.231-143.686 15.926-338.788 109.459z" fill="#038BFF"/><path d="M1127.37 176c-66.11 0-120.06 17.118-144.37 28 26.5-6 71.63-4.374 144.37 6.733 54.3 8.291 129.45 43.074 172.63 77.767 54.82 44.046 69.31 62.566 112 113s57.21 29.966 57.21 29.966 10.86-5.182 14.48-6.737c6.72-2.886 17.91-13.81 25.34-16.063 7.42-2.253 6.72-22.784 0-33.666-.77-1.246-13-21.845-29.03-40.5-5.17-5.182-48.5-55.5-118-93.5-82-44.834-141.54-65-234.63-65z" fill="#fff" stroke="#fff"/><path d="m746 396.999-39.644 22.172H749.5l24-20.671L796 378l23-23 14-14-17 11.499-20 13-24 15.5-26 16zM151 430.5l122-8.5 28-2.5-56.5-20-31.5-12-25.5-11-47-20.5-59-30.5-37.5-23L5.5 273l-24-23-2.5 124.5L4.5 393 36 412.5 59.5 423l91.5 7.5z" fill="#0B4FA2" stroke="#0B4FA2"/></svg>

<svg width="1440" height="417" viewBox="0 0 1440 417" fill="none" xmlns="http://www.w3.org/2000/svg">
<path d="M174.5 373C42.2166 315.556 -15.6667 245.833 -27 219V610.5H85.5C531.5 613.167 1423.9 616.9 1425.5 610.5C1427.5 602.5 1414 504 1400 474C1378.65 428.258 1332.14 371.589 1295.5 336C1260.5 302 1178 253 1067.5 243.5C993.249 237.116 868 285.846 852.5 293C748.5 341 721.5 364.5 669 398C583.014 452.867 439 432 432.5 432C426 432 338 444 174.5 373Z" fill="#0A316C" stroke="#0A316C"/>
<path d="M21.2349 166C-32.8617 108.35 -60.1424 61.3842 -103.247 0L-111.994 82.5379C-113.258 94.471 -108.336 128.68 -79.0795 170.496C-49.8232 212.312 20.7812 282.345 82.2349 314.5C138.235 343.802 206.337 366.837 285.235 372.5C389.735 380 490.735 365 512.735 357.5C505.312 356.378 461.5 360.5 353 348.5C320.816 344.94 232.273 325 172.235 288C126.354 259.725 89.7349 239 21.2349 166Z" fill="white"/>
<path d="M663.512 330.626C467.347 424.669 272.726 412.85 161 371.738C166.492 376.192 261.193 414.186 313.916 433.919C379.819 458.586 444.693 457.045 480.219 461.156C515.744 465.267 635.194 453.961 673.809 435.975C714.218 417.153 786.565 373.794 868.43 316.237C950.294 258.681 1035.76 254.056 1093.43 256.626C1171.2 260.091 1237.59 292.769 1266.42 313.154C1271.06 317.779 1247.73 290.045 1198.46 266.903C1180.95 258.682 1110.93 218.083 1002.3 221.167C888.461 224.398 858.614 237.093 663.512 330.626Z" fill="#038BFF"/>
<path d="M1127.37 176C1061.26 176 1007.31 193.118 983 204C1009.5 198 1054.63 199.626 1127.37 210.733C1181.67 219.024 1256.82 253.807 1300 288.5C1354.82 332.546 1369.31 351.066 1412 401.5C1454.69 451.934 1469.21 431.466 1469.21 431.466C1469.21 431.466 1480.07 426.284 1483.69 424.729C1490.41 421.843 1501.6 410.919 1509.03 408.666C1516.45 406.413 1515.75 385.882 1509.03 375C1508.26 373.754 1496.03 353.155 1480 334.5C1474.83 329.318 1431.5 279 1362 241C1280 196.166 1220.46 176 1127.37 176Z" fill="white" stroke="white"/>
<path d="M746 396.999L706.356 419.171L749.5 419.171L773.5 398.5L796 378L819 355L833 341L816 352.499L796 365.499L772 380.999L746 396.999Z" fill="#0B4FA2" stroke="#0B4FA2"/>
<path d="M151 430.5L273 422L301 419.5L244.5 399.5L213 387.5L187.5 376.5L140.5 356L81.5 325.5L44 302.5L5.5 273L-18.5 250L-21 374.5L4.5 393L36 412.5L59.5 423L151 430.5Z" fill="#0B4FA2" stroke="#0B4FA2"/>
</svg>
